app/img/map-mail.svg

<svg width="28" height="23" viewBox="0 0 28 23" fill="none" xmlns="http://www.w3.org/2000/svg">
<g clip-path="url(#clip0)">
<path d="M25.8125 0.904785H1.4375C0.918945 0.904785 0.5 1.32373 0.5 1.84229V20.5923C0.5 21.1108 0.918945 21.5298 1.4375 21.5298H25.8125C26.3311 21.5298 26.75 21.1108 26.75 20.5923V1.84229C26.75 1.32373 26.3311 0.904785 25.8125 0.904785ZM24.6406 4.15088V19.4204H2.60938V4.15088L1.80078 3.521L2.95215 2.0415L4.20605 3.01709H23.0469L24.3008 2.0415L25.4521 3.521L24.6406 4.15088ZM23.0469 3.01416L13.625 10.3384L4.20312 3.01416L2.94922 2.03857L1.79785 3.51807L2.60645 4.14795L12.6143 11.9292C12.9021 12.1528 13.2561 12.2742 13.6206 12.2742C13.9851 12.2742 14.3391 12.1528 14.627 11.9292L24.6406 4.15088L25.4492 3.521L24.2979 2.0415L23.0469 3.01416Z" fill="#2091F9"/>
</g>
<defs>
<clipPath id="clip0">
<rect width="27" height="22" fill="white" transform="translate(0.5 0.217285)"/>
</clipPath>
</defs>
</svg>

<svg width="28" height="23" fill="none" xmlns="http://www.w3.org/2000/svg"><g clip-path="url(#clip0)"><path d="M25.813.905H1.438a.936.936 0 00-.938.937v18.75c0 .519.419.938.938.938h24.375a.936.936 0 00.937-.938V1.842a.936.936 0 00-.938-.937zM24.64 4.15v15.27H2.609V4.15l-.808-.63 1.151-1.48 1.254.976h18.84l1.255-.975 1.151 1.479-.811.63zm-1.594-1.137l-9.422 7.324-9.422-7.324L2.95 2.04 1.799 3.52l.808.629 10.008 7.781a1.64 1.64 0 002.013 0l10.014-7.778.808-.63-1.151-1.48-1.251.973z" fill="#2091F9"/></g><defs><clipPath id="clip0"><path fill="#fff" transform="translate(.5 .217)" d="M0 0h27v22H0z"/></clipPath></defs></svg>
